X:4
T:Angelsea Air
C:Phil Hardy arr. Adam Blaine
L:1/8
R:Slow Air
M:3/4
K:D
Q:1/4=82
[| {g}de | {g}f4 {ag}a2 | {ef}e4 {g}de | {g}f4 {gef}ed | {A}B4 {g}AB | {gc}d4 {g}de | {g}f4 {g}dA | {GdG}B4 {ge}f2 | {gef}e3 A{g}de | 
{g}f4 {ag}a2 | {ef}e6 | {a}gf {e}f2 {g}ed | {A}B3 {d}B{g}AB | {gc}d4 {g}d/e/f | {gef}e3 {A}e{g}dc | {Gdc}d6 | {gdG}d3 A{g}dc ||
{gBd}B4 {G}B2 | {G}A3 {d}A{g}de | {gf}g2 {ag}a2 f/e/d | {A}B3 {d}B{g}AB | {gc}d4 {g}de | {g}f4 {g}dA | {GdG}B4 {ge}f2 | {gef}e4 {g}de |
{g}f4 {ag}a2 | {ef}e3 A{g}de | {a}gf {e}f2 {g}ed |[Q:1/4=75] "Bit slower just this measure"{A}B4 {g}AB [Q:1/4=120] | {gc}d4 f2 [M: 5/4]  | {g}e4 d<{g}c {Gdc}d2 {ag}a2 |]

